icons/svgs/chevron-down-solid.svg

<svg width="24" height="24" viewBox="0 0 24 24" fill="none" xmlns="http://www.w3.org/2000/svg">
<path d="M11.1016 17.8984L3.60156 10.3984C3.09375 9.92969 3.09375 9.10938 3.60156 8.64062C4.07031 8.13281 4.89062 8.13281 5.35938 8.64062L12 15.2422L18.6016 8.64062C19.0703 8.13281 19.8906 8.13281 20.3594 8.64062C20.8672 9.10938 20.8672 9.92969 20.3594 10.3984L12.8594 17.8984C12.3906 18.4062 11.5703 18.4062 11.1016 17.8984Z" fill="black"/>
</svg>

<svg xmlns="http://www.w3.org/2000/svg" width="24" height="24" fill="currentColor" class="icon-chevron-down-solid" viewBox="0 0 24 24">
  <mask id="a" width="18" height="11" x="3" y="8" maskUnits="userSpaceOnUse" style="mask-type:alpha">
    <path d="m11.102 17.898-7.5-7.5a1.205 1.205 0 0 1 0-1.757 1.205 1.205 0 0 1 1.757 0L12 15.242l6.602-6.601a1.205 1.205 0 0 1 1.757 0 1.203 1.203 0 0 1 0 1.757l-7.5 7.5a1.205 1.205 0 0 1-1.757 0"/>
  </mask>
  <g mask="url(#a)">
    <path d="M0 0h24v24H0z"/>
  </g>
</svg>
